X:12
T: The Battle of Waterloo
M:4/4
K:HP
{g}ed/4B3/4 | 
{g}A2 {GdGe}AB {gAd}AG {g}GA | {GdG}c3/2d/2 {g}ec {Gdc}d2 {g}ef/4g3/4 | {ag}a3/2g/2 {a}ed {gef}e3/2d/2 {gBd}BA | {g}G3/2{d}G/2 {e}GA {gGd}G2 {g}ed/4B3/4 |!
x2{g}A2 {GdGe}AB {gAd}AG {g}GA | {GdG}c3/2d/2 {g}ec {Gdc}d2 {g}ef/4g3/4 | {ag}a3/2g/2 {a}ed {gef}e3/2d/2 {gBd}B{e}G | {g}A4 {GAG}A2 x2 ||!
{gf}g2| {ag}a3/2g/2 {a}ed {g}c2 {GdG}e3/2f/2 | {gf}g3/2a/2 {f}ge {gf}g2 {a}ef/4g3/4 | {ag}a3/2g/2 {a}ed {gef}e3/2d/2 {gBd}BA | {g}G3/2{d}G/2 {e}GA {gGd}G2 {g}ed/4B3/4|!
x2{g}A2 {GdGe}AB {gAd}AG {g}GA | {GdG}c3/2d/2 {g}ec {Gdc}d2 {g}ef/4g3/4 | {ag}a3/2g/2 {a}ed {gef}e3/2d/2 {gBd}B{e}G | {g}A4 {GAG}A2 x2 ]!

%%newpage

